packages/blockchain-info-components/src/Images/img/twitter-white.svg

<?xml version="1.0" encoding="UTF-8"?>
<svg width="23px" height="19px" viewBox="0 0 23 19" version="1.1" xmlns="http://www.w3.org/2000/svg" xmlns:xlink="http://www.w3.org/1999/xlink">
    <!-- Generator: Sketch 50.2 (55047) - http://www.bohemiancoding.com/sketch -->
    <title>Fill 264</title>
    <desc>Created with Sketch.</desc>
    <defs></defs>
    <g id="Page-1" stroke="none" stroke-width="1" fill="white" fill-rule="evenodd">
        <g id="Icons" class="social-icons" transform="translate(-290.000000, -3.000000)">
            <g id="Fill-264" transform="translate(290.000000, 3.000000)">
                <path d="M22.4443,2.834 C21.6303,3.197 20.9443,3.209 20.2163,2.85 C21.1553,2.288 21.1983,1.894 21.5373,0.831 C20.6593,1.352 19.6863,1.731 18.6513,1.936 C17.8233,1.053 16.6413,0.5 15.3353,0.5 C12.8253,0.5 10.7913,2.536 10.7913,5.044 C10.7913,5.401 10.8313,5.748 10.9083,6.08 C7.1313,5.891 3.7833,4.081 1.5423,1.331 C1.1513,2.003 0.9263,2.784 0.9263,3.617 C0.9263,5.194 1.7293,6.584 2.9483,7.399 C2.2033,7.375 1.5033,7.171 0.8903,6.831 C0.8893,6.85 0.8893,6.868 0.8893,6.888 C0.8893,9.09 2.4563,10.926 4.5353,11.344 C3.8693,11.525 3.1673,11.553 2.4823,11.422 C3.0613,13.227 4.7393,14.541 6.7273,14.578 C4.7833,16.102 2.3723,16.737 0.0003,16.459 C2.0113,17.748 4.3993,18.5 6.9653,18.5 C15.3243,18.5 19.8933,11.576 19.8933,5.571 C19.8933,5.373 19.8903,5.179 19.8813,4.983 C20.7683,4.343 21.8353,3.746 22.4443,2.834"></path>
            </g>
        </g>
    </g>
</svg>

<svg height="19" viewBox="0 0 23 19" width="23" xmlns="http://www.w3.org/2000/svg"><path d="m22.4443 2.834c-.814.363-1.5.375-2.228.016.939-.562.982-.956 1.321-2.019-.878.521-1.851.9-2.886 1.105-.828-.883-2.01-1.436-3.316-1.436-2.51 0-4.544 2.036-4.544 4.544 0 .357.04.704.117 1.036-3.777-.189-7.125-1.999-9.366-4.749-.391.672-.616 1.453-.616 2.286 0 1.577.803 2.967 2.022 3.782-.745-.024-1.445-.228-2.058-.568-.001.019-.001.037-.001.057 0 2.202 1.567 4.038 3.646 4.456-.666.181-1.368.209-2.053.078.579 1.805 2.257 3.119 4.245 3.156-1.944 1.524-4.355 2.159-6.727 1.881 2.011 1.289 4.399 2.041 6.965 2.041 8.359 0 12.928-6.924 12.928-12.929 0-.198-.003-.392-.012-.588.887-.64 1.954-1.237 2.563-2.149" fill="#fff" fill-rule="evenodd"/></svg>
